X: 28104
T: Mr. O'Connor
R: waltz
M: 3/4
K: Eminor
B2E2F2|GAGF E2|e2E2F2|GFGA B2|Bc A2B2|
BAGF B2|BAGF E2|D2 "tr"F2 ED|E2G2e2|edef g2|
GBGB E2|b2 ba g2|FAFA D2|a2 {a}g2 f2|fgfe f2|
d4 B2|E2G2F2|E2A2G2|F2B2A2|G2c2B2|BAGF B2|
AGFE F2|B2E2^D2|E6||B=DEF G2|B2A2G2|F2G2E2|
D2B2B2|edef g2|f2d2a2|b2 ba g2|f4 ed|efed e2|
G2F2E2|dedB d2|GAGA F2|BcBA B2|E2G2A2|
E2A2 GF|G4 A2|B2 GBGB|d2 d2 d2|e2 BeBe|
f2 f2 f2|gfga b2|agfg a2|gd B2 ^d2|e6||
M:6/8
EGB BGE|FGA GDB|cGE D3|E3 F3|
G/A/Bc BGB|AFA dAF|G>AG FDB|E3 E3||
GBe FAd|EGB AFD|E3 DGB|D3 G2 A|
BG/A/B AF/G/A|BG/A/B cA/B/c|B2 A AFB|
GEA FED/|EFG FGA|EFG FAc|BAB GFE|E3 E3||

